X:2
T:These Foolish Things
C:Strachey & Link
L:1/4
M:C
I:linebreak $
K:E
"E6" z/ E/F/G/"C#m" F/E/C/E/ |"F#m" G G"F7" G/ F3/2 |"E" z/ E/F/G/"C#m" F/E/C/E/ |
"F#m" c c"B7" c/ B3/2 |$"Bm" z/ B/c/B/"Bb7" e e |"A" e2"G#o" (3G A B ||1"F#7" c3/2 C/ (3C E G |
"F7" F4 :|2$"F#m" c C"F7" (3D E F |"E6" E4 "D#7" x4||"G#m6" z B"Fø" G2 |"Bbø" z c"D#7" ^A2 |$
"G#m" z B"G#m/F#" c d |"Fø" d4 "Em" x4|"D#m" z d"G#m" c B |"C#m" (3c d c"F#7" z F |$
"G#m" B B"G7" B ^A |"F#m" (3A B A"F7" "_D.C. al 3rd end." F2 ||3"F#m" c C"F7" (3D E F |"E6" E4 |]

